static/img/index/partners/Mintter_color_light.svg

<svg width="158" height="36" viewBox="0 0 158 36" fill="none" xmlns="http://www.w3.org/2000/svg">
<path d="M0.448242 35H7.70312V14.7627H11.5215L3.45801 3.4873L15.8115 35H20.5283L32.8818 3.4873L24.8184 14.7627H28.6367V35H35.8916V2.58887H26.3682L18.2598 23.7471H18.1025L9.99414 2.58887H0.448242V35Z" fill="black"/>
<path d="M40.3164 35H48.29V10.54H40.3164V35ZM44.292 7.91211C45.445 7.91211 46.4108 7.52279 47.1895 6.74414C47.9681 5.96549 48.3574 5.0446 48.3574 3.98145C48.3574 2.90332 47.9681 1.98242 47.1895 1.21875C46.4108 0.440104 45.445 0.0507812 44.292 0.0507812C43.154 0.0507812 42.1882 0.440104 41.3945 1.21875C40.6159 1.98242 40.2266 2.90332 40.2266 3.98145C40.2266 5.0446 40.6159 5.96549 41.3945 6.74414C42.1882 7.52279 43.154 7.91211 44.292 7.91211Z" fill="black"/>
<path d="M52.1982 35H60.1719V21.1191C60.1719 20.2057 60.3366 19.4046 60.666 18.7158C61.0104 18.027 61.4896 17.488 62.1035 17.0986C62.7174 16.7093 63.4437 16.5146 64.2822 16.5146C65.585 16.5146 66.5658 16.9115 67.2246 17.7051C67.8835 18.4837 68.2129 19.5693 68.2129 20.9619V35H76.1865V19.2549C76.1865 16.3499 75.4528 14.0889 73.9854 12.4717C72.5329 10.8395 70.459 10.0234 67.7637 10.0234C65.9219 10.0234 64.3796 10.4427 63.1367 11.2812C61.8939 12.1198 60.958 13.3102 60.3291 14.8525H60.1719V10.54H52.1982V35Z" fill="black"/>
<path d="M90.5391 35.5166C91.3776 35.5166 92.1038 35.4867 92.7178 35.4268C93.3317 35.3669 93.8558 35.2995 94.29 35.2246V29.5645C94.0654 29.5944 93.8408 29.6243 93.6162 29.6543C93.3916 29.6693 93.1146 29.6768 92.7852 29.6768C91.8268 29.6768 91.1081 29.4596 90.6289 29.0254C90.1497 28.5762 89.9102 27.8275 89.9102 26.7793V16.3799H94.29V10.54H89.9102V4.90234H81.9141V10.54H78.5898V16.3799H81.9141V27.8574C81.9141 30.6126 82.6104 32.5817 84.0029 33.7646C85.4105 34.9326 87.5892 35.5166 90.5391 35.5166Z" fill="black"/>
<path d="M108.193 35.5166C109.032 35.5166 109.758 35.4867 110.372 35.4268C110.986 35.3669 111.51 35.2995 111.944 35.2246V29.5645C111.72 29.5944 111.495 29.6243 111.271 29.6543C111.046 29.6693 110.769 29.6768 110.439 29.6768C109.481 29.6768 108.762 29.4596 108.283 29.0254C107.804 28.5762 107.564 27.8275 107.564 26.7793V16.3799H111.944V10.54H107.564V4.90234H99.5684V10.54H96.2441V16.3799H99.5684V27.8574C99.5684 30.6126 100.265 32.5817 101.657 33.7646C103.065 34.9326 105.243 35.5166 108.193 35.5166Z" fill="black"/>
<path d="M126.724 35.5166C128.685 35.5166 130.355 35.2695 131.732 34.7754C133.125 34.2663 134.271 33.6074 135.169 32.7988C136.082 31.9902 136.794 31.1292 137.303 30.2158C137.812 29.2874 138.156 28.3965 138.336 27.543L138.403 27.2734H131.216L131.193 27.3633C131.074 27.7077 130.834 28.0745 130.475 28.4639C130.13 28.8532 129.659 29.1826 129.06 29.4521C128.461 29.7217 127.734 29.8564 126.881 29.8564C125.893 29.8564 125.039 29.6393 124.32 29.2051C123.617 28.7559 123.07 28.1195 122.681 27.2959C122.306 26.4723 122.119 25.484 122.119 24.3311V21.2314C122.119 20.0635 122.306 19.0677 122.681 18.2441C123.055 17.4056 123.579 16.7692 124.253 16.335C124.942 15.9007 125.735 15.6836 126.634 15.6836C127.532 15.6836 128.318 15.9007 128.992 16.335C129.666 16.7542 130.19 17.3831 130.564 18.2217C130.939 19.0452 131.126 20.0485 131.126 21.2314V24.3086L134.832 19.8838H118.211V24.6006H138.561V22.2646C138.561 19.7939 138.066 17.6452 137.078 15.8184C136.09 13.9766 134.69 12.554 132.878 11.5508C131.066 10.5326 128.925 10.0234 126.454 10.0234C123.983 10.0234 121.835 10.54 120.008 11.5732C118.196 12.6064 116.788 14.0739 115.785 15.9756C114.797 17.8773 114.303 20.1383 114.303 22.7588V22.7812C114.303 25.4167 114.797 27.6852 115.785 29.5869C116.788 31.4886 118.218 32.9561 120.075 33.9893C121.932 35.0075 124.148 35.5166 126.724 35.5166Z" fill="black"/>
<path d="M141.638 35H149.611V22.0176C149.611 20.8646 149.806 19.8988 150.195 19.1201C150.6 18.3265 151.184 17.7275 151.947 17.3232C152.726 16.9189 153.677 16.7168 154.8 16.7168C155.279 16.7168 155.736 16.7542 156.17 16.8291C156.619 16.904 157.008 17.0163 157.338 17.166V10.3379C157.038 10.2331 156.709 10.1582 156.35 10.1133C156.005 10.0534 155.646 10.0234 155.271 10.0234C153.819 10.0234 152.621 10.4427 151.678 11.2812C150.749 12.1198 150.113 13.3177 149.769 14.875H149.611V10.54H141.638V35Z" fill="black"/>
</svg>

<svg width="158" height="36" fill="none" xmlns="http://www.w3.org/2000/svg"><path d="M.448 35h7.255V14.763h3.818L3.458 3.487 15.812 35h4.716L32.882 3.487l-8.064 11.276h3.819V35h7.255V2.589h-9.524L18.26 23.747h-.158L9.994 2.59H.448V35Zm39.868 0h7.974V10.54h-7.974V35Zm3.976-27.088c1.153 0 2.119-.39 2.898-1.168.778-.779 1.167-1.7 1.167-2.763 0-1.078-.389-1.999-1.167-2.762C46.41.44 45.445.05 44.291.05c-1.138 0-2.104.39-2.898 1.168-.778.763-1.167 1.684-1.167 2.762 0 1.064.389 1.984 1.168 2.763.793.779 1.759 1.168 2.897 1.168ZM52.198 35h7.974V21.12c0-.914.165-1.715.494-2.404a3.972 3.972 0 0 1 1.438-1.617c.613-.39 1.34-.584 2.178-.584 1.303 0 2.284.396 2.943 1.19.659.779.988 1.864.988 3.257V35h7.974V19.255c0-2.905-.734-5.166-2.202-6.783-1.452-1.633-3.526-2.449-6.221-2.449-1.842 0-3.384.42-4.627 1.258-1.243.839-2.179 2.03-2.808 3.571h-.157V10.54h-7.974V35Zm38.342.517c.838 0 1.564-.03 2.178-.09a22.01 22.01 0 0 0 1.572-.202v-5.66l-.674.09c-.224.014-.501.022-.83.022-.96 0-1.678-.217-2.157-.652-.48-.449-.719-1.197-.719-2.246v-10.4h4.38V10.54h-4.38V4.902h-7.996v5.638H78.59v5.84h3.324v11.477c0 2.756.696 4.725 2.089 5.908 1.407 1.168 3.586 1.752 6.536 1.752Zm17.653 0c.839 0 1.565-.03 2.179-.09.614-.06 1.138-.127 1.572-.202v-5.66l-.673.09a13.65 13.65 0 0 1-.832.022c-.958 0-1.677-.217-2.156-.652-.479-.449-.719-1.197-.719-2.246v-10.4h4.38V10.54h-4.38V4.902h-7.996v5.638h-3.324v5.84h3.324v11.477c0 2.756.697 4.725 2.089 5.908 1.408 1.168 3.586 1.752 6.536 1.752Zm18.531 0c1.961 0 3.631-.248 5.008-.742 1.393-.509 2.539-1.168 3.437-1.976.913-.809 1.625-1.67 2.134-2.583.509-.929.853-1.82 1.033-2.673l.067-.27h-7.187l-.023.09c-.119.345-.359.712-.718 1.1-.345.39-.816.72-1.415.99-.599.269-1.326.403-2.179.403-.988 0-1.842-.217-2.561-.65-.703-.45-1.25-1.087-1.639-1.91-.375-.824-.562-1.812-.562-2.965v-3.1c0-1.168.187-2.163.562-2.987.374-.838.898-1.475 1.572-1.909.689-.434 1.482-.651 2.381-.651.898 0 1.684.217 2.358.651.674.42 1.198 1.048 1.572 1.887.375.823.562 1.826.562 3.01v3.077l3.706-4.425h-16.621V24.6h20.35v-2.336c0-2.471-.495-4.62-1.483-6.447-.988-1.841-2.388-3.264-4.2-4.267-1.812-1.018-3.953-1.528-6.424-1.528-2.471 0-4.619.517-6.446 1.55-1.812 1.033-3.22 2.5-4.223 4.403-.988 1.901-1.482 4.162-1.482 6.783v.022c0 2.636.494 4.904 1.482 6.806 1.003 1.902 2.433 3.37 4.29 4.402 1.857 1.019 4.073 1.528 6.649 1.528ZM141.638 35h7.973V22.018c0-1.153.195-2.12.584-2.898a4.074 4.074 0 0 1 1.752-1.797c.779-.404 1.73-.606 2.853-.606.479 0 .936.037 1.37.112.449.075.838.187 1.168.337v-6.828c-.3-.105-.629-.18-.988-.225a6.294 6.294 0 0 0-1.079-.09c-1.452 0-2.65.42-3.593 1.258-.929.839-1.565 2.037-1.909 3.594h-.158V10.54h-7.973V35Z" fill="#000"/></svg>
